X:3578
T:Crowley's
R:reel
Z:id:hn-reel-429
M:C|
K:D
e|:f2df edBc|dBBA BAFA|1 ~B3d AFDE|FEED E2de:|2 ~B3d AFDF|EFGE FDFA||
d2dc dAFA|BABd cA~A2|BGAF GEFD|1 EFGE FDFA:|2 EFGE FDD||


